static/images/mobile/copyright/wikipedia-tagline-li.svg

<svg width="120" height="13" viewBox="0 0 120 13" fill="none" xmlns="http://www.w3.org/2000/svg">
<path d="M2.41413 8.41183V1.83282C2.41413 1.3541 2.89285 1.16261 3.56306 1.16261C6.51745 1.16261 7.48858 3.55622 7.48858 5.6626C7.48858 8.4255 5.83357 9.1094 3.905 9.1094C2.56458 9.1094 2.41413 8.84952 2.41413 8.41183ZM1.82598 0.724922C1.14209 0.724922 0.745438 0.711244 0.0615499 0.697566C-0.0205166 0.779633 -0.0205166 1.06687 0.0615499 1.14893C1.01899 1.18997 1.25152 1.25836 1.25152 2.39361V7.8784C1.25152 9.01365 1.01899 9.08204 0.0615499 9.12307C-0.0205166 9.20514 -0.0205166 9.49237 0.0615499 9.57444C0.73176 9.56076 1.14209 9.54708 1.83966 9.54708C2.34574 9.54708 2.92021 9.57444 4.32901 9.57444C6.25758 9.57444 8.80164 8.69906 8.80164 5.33433C8.80164 2.79027 6.70894 0.697566 4.08281 0.697566C3.20744 0.697566 2.35941 0.724922 1.82598 0.724922ZM11.1683 5.68995C11.4282 4.14437 12.3857 4.02126 12.7139 4.02126C13.2337 4.02126 13.8492 4.3085 13.8492 5.45743C13.8492 5.58053 13.7945 5.64892 13.644 5.64892L11.1683 5.68995ZM14.7519 8.27505C14.2458 8.79481 13.8492 9.01365 13.0559 9.01365C12.5635 9.01365 11.989 8.72642 11.565 8.02885C11.2914 7.57749 11.1273 6.94831 11.1273 6.155L14.7656 6.18235C14.9297 6.18235 15.0255 6.10028 15.0255 5.94983C15.0255 4.8009 14.6151 3.5699 12.7139 3.5699C11.524 3.5699 9.97836 4.70516 9.97836 6.78417C9.97836 7.55013 10.1699 8.28873 10.6212 8.80848C11.0863 9.35559 11.7291 9.68386 12.7139 9.68386C13.7534 9.68386 14.492 9.20514 15.0391 8.4939C14.9981 8.35712 14.916 8.28873 14.7519 8.27505ZM23.4546 4.10333C24.1932 4.15804 24.2616 4.33585 23.9744 5.01974L22.8801 7.70058C22.6476 8.2477 22.5792 8.23402 22.3741 7.65955L21.3756 5.01974C21.1431 4.36321 20.9516 4.1854 21.8133 4.10333C21.8953 4.02126 21.8953 3.73403 21.8133 3.65196C21.3072 3.66564 20.9242 3.67932 20.3634 3.67932C19.8847 3.67932 19.6659 3.66564 19.1598 3.65196C19.0777 3.73403 19.0777 4.02126 19.1598 4.10333C19.9394 4.19908 19.9804 4.41792 20.254 5.10181L22.0048 9.42398C22.0868 9.62915 22.1689 9.71122 22.3467 9.71122C22.4835 9.71122 22.5655 9.62915 22.675 9.39663L24.4941 5.11549C24.754 4.52734 24.9044 4.17172 25.6704 4.10333C25.7525 4.02126 25.7525 3.73403 25.6704 3.65196C25.3695 3.66564 25.1233 3.67932 24.7677 3.67932C24.2616 3.67932 23.9607 3.66564 23.4546 3.65196C23.3725 3.73403 23.3725 4.02126 23.4546 4.10333ZM27.1893 5.21123V7.8784C27.1893 9.01365 27.0251 9.06836 26.1771 9.12307C26.095 9.20514 26.095 9.49237 26.1771 9.57444C26.7516 9.56076 27.1893 9.54708 27.7364 9.54708C28.2972 9.54708 28.8032 9.56076 29.3914 9.57444C29.4735 9.49237 29.4735 9.20514 29.3914 9.12307C28.4339 9.05468 28.2698 9.01365 28.2698 7.8784V5.97719C28.2698 5.62156 28.4339 5.30697 28.5981 5.06077C28.7485 4.84193 29.0631 4.39056 29.2273 4.39056C29.323 4.39056 29.4324 4.40424 29.5145 4.48631C29.6513 4.62309 29.788 4.88296 30.0753 4.88296C30.4035 4.88296 30.7181 4.54102 30.7181 4.19908C30.7181 3.9392 30.4719 3.54254 29.8975 3.54254C29.2546 3.54254 28.6938 4.14436 28.3792 4.6778C28.2972 4.82825 28.2561 4.75986 28.2561 4.69147C28.2561 4.25379 28.3245 3.59725 28.3245 3.59725C28.3245 3.54254 28.2561 3.50151 28.1467 3.50151C27.7637 3.65196 27.2166 3.77507 26.2729 3.89816C26.2455 3.98023 26.2455 4.19908 26.3002 4.28114C27.0388 4.34953 27.1893 4.45895 27.1893 5.21123ZM32.1282 1.3541C32.1282 1.70972 32.4565 2.06534 32.7848 2.06534C33.1677 2.06534 33.496 1.70972 33.496 1.40881C33.496 1.08054 33.2088 0.697566 32.8395 0.697566C32.5112 0.697566 32.1282 1.02583 32.1282 1.3541ZM33.3729 7.8784V5.15652C33.3729 4.47263 33.4276 3.59725 33.4276 3.59725C33.4276 3.54254 33.3592 3.50151 33.2498 3.50151C32.8531 3.65196 32.3197 3.77507 31.3759 3.89816C31.3486 3.98023 31.3759 4.19908 31.4033 4.28114C32.1419 4.36321 32.2924 4.4316 32.2924 5.21123V7.8784C32.2924 9.01365 32.1419 9.05468 31.3076 9.12307C31.2255 9.20514 31.2255 9.49237 31.3076 9.57444C31.882 9.56076 32.2376 9.54708 32.8395 9.54708C33.4276 9.54708 33.7696 9.56076 34.3577 9.57444C34.4398 9.49237 34.4398 9.20514 34.3577 9.12307C33.5234 9.06836 33.3729 9.01365 33.3729 7.8784ZM36.3066 5.68995C36.5664 4.14437 37.5239 4.02126 37.8522 4.02126C38.3719 4.02126 38.9874 4.3085 38.9874 5.45743C38.9874 5.58053 38.9327 5.64892 38.7822 5.64892L36.3066 5.68995ZM39.8901 8.27505C39.3841 8.79481 38.9874 9.01365 38.1941 9.01365C37.7017 9.01365 37.1272 8.72642 36.7032 8.02885C36.4297 7.57749 36.2655 6.94831 36.2655 6.155L39.9038 6.18235C40.068 6.18235 40.1637 6.10028 40.1637 5.94983C40.1637 4.8009 39.7534 3.5699 37.8522 3.5699C36.6622 3.5699 35.1166 4.70516 35.1166 6.78417C35.1166 7.55013 35.3081 8.28873 35.7595 8.80848C36.2245 9.35559 36.8674 9.68386 37.8522 9.68386C38.8917 9.68386 39.6303 9.20514 40.1774 8.4939C40.1363 8.35712 40.0543 8.28873 39.8901 8.27505ZM42.0822 1.3541C42.0822 1.70972 42.4105 2.06534 42.7388 2.06534C43.1217 2.06534 43.45 1.70972 43.45 1.40881C43.45 1.08054 43.1628 0.697566 42.7935 0.697566C42.4652 0.697566 42.0822 1.02583 42.0822 1.3541ZM42.2737 5.21123V8.50757C42.2737 10.313 42.219 11.9954 41.5351 11.9954C41.3847 11.9954 41.2068 11.9407 41.1111 11.8449C40.9743 11.7082 40.8102 11.4893 40.5093 11.4893C40.3588 11.4893 40.0716 11.7629 40.0716 12.0091C40.0716 12.4057 40.564 12.5972 40.8239 12.5972C41.1111 12.5972 41.8223 12.5562 42.3284 12.1322C42.9713 11.6124 43.3543 10.6276 43.3543 8.04253V5.15652C43.3543 4.47263 43.409 3.59725 43.409 3.59725C43.409 3.54254 43.3406 3.50151 43.2312 3.50151C42.8482 3.65196 42.3011 3.77507 41.3573 3.89816C41.3299 3.98023 41.3573 4.19908 41.3847 4.28114C42.1233 4.34953 42.2737 4.4316 42.2737 5.21123ZM49.5569 5.68995C49.8168 4.14437 50.7742 4.02126 51.1025 4.02126C51.6223 4.02126 52.2378 4.3085 52.2378 5.45743C52.2378 5.58053 52.183 5.64892 52.0326 5.64892L49.5569 5.68995ZM53.1405 8.27505C52.6344 8.79481 52.2378 9.01365 51.4444 9.01365C50.952 9.01365 50.3776 8.72642 49.9536 8.02885C49.68 7.57749 49.5159 6.94831 49.5159 6.155L53.1542 6.18235C53.3183 6.18235 53.414 6.10028 53.414 5.94983C53.414 4.8009 53.0037 3.5699 51.1025 3.5699C49.9125 3.5699 48.3669 4.70516 48.3669 6.78417C48.3669 7.55013 48.5584 8.28873 49.0098 8.80848C49.4748 9.35559 50.1177 9.68386 51.1025 9.68386C52.142 9.68386 52.8806 9.20514 53.4277 8.4939C53.3867 8.35712 53.3046 8.28873 53.1405 8.27505ZM56.4952 4.65044C56.4541 4.70515 56.3584 4.84193 56.3584 4.65044C56.3584 4.24011 56.4268 3.61093 56.4268 3.61093C56.4268 3.54254 56.3721 3.50151 56.2626 3.50151C55.8797 3.65196 55.3189 3.77507 54.3751 3.89816C54.3478 3.98023 54.3751 4.19908 54.4025 4.28114C55.1411 4.34953 55.2915 4.41792 55.2915 5.21123V7.8784C55.2915 8.99997 55.1548 9.05468 54.3341 9.12307C54.252 9.20514 54.252 9.49237 54.3341 9.57444C54.8949 9.56076 55.2505 9.54708 55.8386 9.54708C56.3721 9.54708 56.6183 9.56076 57.1927 9.57444C57.2748 9.49237 57.2748 9.20514 57.1927 9.12307C56.4952 9.05468 56.3721 8.99997 56.3721 7.8784V5.63524C56.3721 5.34801 56.4952 5.18387 56.6046 5.06077C57.1244 4.5547 57.6578 4.25379 58.1912 4.25379C58.4648 4.25379 58.752 4.4316 58.9161 4.74619C59.0529 5.01974 59.0803 5.38904 59.0803 5.79937V7.8784C59.0803 8.99997 58.9435 9.05468 58.2323 9.12307C58.1639 9.20514 58.1639 9.49237 58.2323 9.57444C58.8067 9.56076 59.0803 9.54708 59.6274 9.54708C60.1882 9.54708 60.4891 9.56076 61.0772 9.57444C61.1456 9.49237 61.1456 9.20514 61.0772 9.12307C60.3113 9.05468 60.1608 8.99997 60.1608 7.8784V5.84041C60.1608 5.08813 60.1061 4.4316 59.7915 4.00759C59.559 3.70668 59.135 3.54254 58.6563 3.54254C57.9861 3.54254 57.3295 3.72035 56.4952 4.65044ZM66.742 8.30241C66.6873 8.17931 66.5778 8.12459 66.4547 8.11092C65.9897 8.71274 65.4015 9.01365 64.8134 9.01365C63.8149 9.01365 62.9806 8.00149 62.9806 6.4012C62.9806 4.89664 63.6371 3.99391 64.5398 3.99391C65.3468 3.99391 65.4563 4.47263 65.511 4.95135C65.552 5.32065 65.7435 5.44375 66.0307 5.44375C66.3179 5.44375 66.7009 5.26594 66.7009 4.84193C66.7009 4.08965 65.9213 3.54254 64.6082 3.54254C63.2541 3.54254 61.8043 4.75986 61.8043 6.70211C61.8043 8.46654 62.7891 9.68386 64.5125 9.68386C65.3332 9.68386 66.0581 9.42398 66.742 8.30241ZM69.9402 11.7355C70.1454 11.3662 70.3232 10.9696 70.501 10.5592C71.5952 7.93311 72.197 6.51062 72.922 4.97871C73.1135 4.58205 73.5238 4.14436 74.0299 4.10333C74.1119 4.02126 74.1119 3.73403 74.0299 3.65196C73.6879 3.66564 73.4417 3.67932 73.0587 3.67932C72.58 3.67932 72.3201 3.66564 71.8141 3.65196C71.732 3.73403 71.732 4.02126 71.8141 4.10333C72.2381 4.14436 72.6758 4.22643 72.4706 4.71883L71.1028 7.85104C71.0071 8.08356 70.8977 8.11092 70.7746 7.83736L69.5709 4.99239C69.3247 4.41792 69.1743 4.17172 70.0086 4.10333C70.0907 4.02126 70.0907 3.73403 70.0086 3.65196C69.5025 3.66564 68.9554 3.67932 68.463 3.67932C67.998 3.67932 67.6287 3.66564 67.3551 3.65196C67.273 3.73403 67.273 4.02126 67.3551 4.10333C67.9569 4.15804 68.0664 4.26746 68.4357 5.12916L69.9812 8.72642C70.1043 9.01365 70.3095 9.62915 70.1727 10.0121C70.0223 10.4772 69.8445 10.8465 69.6393 11.2705C69.4888 11.544 69.2974 11.6671 68.9554 11.6671C68.7639 11.6671 68.7092 11.6261 68.5588 11.6261C68.1621 11.6261 67.9569 12.0364 67.9569 12.2142C67.9569 12.5015 68.2305 12.7203 68.5998 12.7203C68.887 12.7203 69.4341 12.6109 69.9265 11.7355H69.9402ZM79.5382 8.30241C79.4834 8.17931 79.374 8.12459 79.2509 8.11092C78.7859 8.71274 78.1977 9.01365 77.6096 9.01365C76.6111 9.01365 75.7768 8.00149 75.7768 6.4012C75.7768 4.89664 76.4333 3.99391 77.336 3.99391C78.143 3.99391 78.2524 4.47263 78.3072 4.95135C78.3482 5.32065 78.5397 5.44375 78.8269 5.44375C79.1141 5.44375 79.4971 5.26594 79.4971 4.84193C79.4971 4.08965 78.7175 3.54254 77.4044 3.54254C76.0503 3.54254 74.6005 4.75986 74.6005 6.70211C74.6005 8.46654 75.5853 9.68386 77.3087 9.68386C78.1293 9.68386 78.8543 9.42398 79.5382 8.30241ZM81.1908 7.8784C81.1908 9.01365 81.0404 9.08204 80.206 9.12307C80.124 9.20514 80.124 9.49237 80.206 9.57444C80.7805 9.56076 81.1361 9.54708 81.7379 9.54708C82.3261 9.54708 82.668 9.56076 83.2562 9.57444C83.3382 9.49237 83.3382 9.20514 83.2562 9.12307C82.4218 9.08204 82.2714 9.01365 82.2714 7.8784V1.57294C82.2714 0.683889 82.3261 0.136778 82.3261 0.136778C82.3261 0.0410336 82.2714 0 82.1483 0C81.8063 0.136778 80.7805 0.328267 80.2334 0.3693C80.206 0.478722 80.2334 0.697566 80.3154 0.779633C81.0267 0.820666 81.1908 0.752279 81.1908 1.90121V7.8784ZM84.0587 6.74314C84.0587 8.13827 85.0024 9.68386 86.931 9.68386C88.969 9.68386 89.8307 7.98782 89.8307 6.62004C89.8307 5.19755 89.0784 3.54254 86.9583 3.54254C85.1119 3.54254 84.0587 5.00607 84.0587 6.74314ZM86.8079 3.99391C87.9842 3.99391 88.6544 5.0471 88.6544 7.05773C88.6544 8.86319 87.82 9.2325 87.1772 9.2325C85.7547 9.2325 85.235 7.48174 85.235 6.42855C85.235 5.23859 85.659 3.99391 86.8079 3.99391ZM92.7838 4.96503C93.2078 4.52734 93.7549 4.17172 94.1653 4.17172C95.0406 4.17172 95.7929 5.15652 95.7929 6.70211C95.7929 7.82368 95.3962 9.21882 93.8643 9.21882C93.6181 9.21882 93.1394 9.15043 92.8932 8.93158C92.606 8.68538 92.565 8.61699 92.565 8.11092V5.56685C92.565 5.27962 92.606 5.15652 92.7838 4.96503ZM92.6744 4.51366C92.6197 4.56837 92.5376 4.58205 92.5376 4.47263C92.5376 3.98023 92.5923 3.59725 92.5923 3.59725C92.5923 3.54254 92.5239 3.50151 92.4145 3.50151C92.0315 3.65196 91.5118 3.77507 90.568 3.89816C90.5406 3.98023 90.568 4.19908 90.5953 4.28114C91.3339 4.34953 91.4844 4.4316 91.4844 5.21123V11.0516C91.4844 12.1869 91.3339 12.2553 90.4996 12.2963C90.4175 12.3784 90.4175 12.6656 90.4996 12.7477C91.0741 12.734 91.4297 12.7203 92.0315 12.7203C92.6744 12.7203 93.0984 12.734 93.6865 12.7477C93.7686 12.6656 93.7686 12.3784 93.6865 12.2963C92.7154 12.2416 92.565 12.1869 92.565 11.0516V9.57444C92.565 9.39663 92.606 9.42398 92.7564 9.47869C93.0847 9.61547 93.5087 9.68386 93.9464 9.68386C94.7124 9.68386 95.3962 9.45134 95.957 8.91791C96.5999 8.28873 96.9692 7.44071 96.9692 6.33281C96.9692 4.88297 95.9434 3.54254 94.5482 3.54254C94.0422 3.54254 93.2899 3.88449 92.6744 4.51366ZM99.2991 5.68995C99.559 4.14437 100.516 4.02126 100.845 4.02126C101.364 4.02126 101.98 4.3085 101.98 5.45743C101.98 5.58053 101.925 5.64892 101.775 5.64892L99.2991 5.68995ZM102.883 8.27505C102.377 8.79481 101.98 9.01365 101.187 9.01365C100.694 9.01365 100.12 8.72642 99.6958 8.02885C99.4222 7.57749 99.2581 6.94831 99.2581 6.155L102.896 6.18235C103.061 6.18235 103.156 6.10028 103.156 5.94983C103.156 4.8009 102.746 3.5699 100.845 3.5699C99.6547 3.5699 98.1092 4.70516 98.1092 6.78417C98.1092 7.55013 98.3006 8.28873 98.752 8.80848C99.2171 9.35559 99.8599 9.68386 100.845 9.68386C101.884 9.68386 102.623 9.20514 103.17 8.4939C103.129 8.35712 103.047 8.28873 102.883 8.27505ZM108.52 7.85104C108.52 8.11092 108.492 8.22034 108.301 8.38447C107.795 8.82216 107.357 9.04101 107.015 9.04101C106.276 9.04101 105.511 8.23402 105.511 6.5243C105.511 5.5395 105.702 4.99239 105.907 4.70515C106.331 4.0623 106.906 4.02126 107.179 4.02126C107.672 4.02126 108.014 4.19908 108.287 4.51366C108.479 4.73251 108.52 4.82825 108.52 5.25226V7.85104ZM108.369 8.8632C108.424 8.80848 108.533 8.78113 108.533 8.87687C108.533 9.20514 108.684 9.68386 108.684 9.68386C108.793 9.7249 108.834 9.71122 108.944 9.68386C109.245 9.43766 109.764 9.23249 110.599 9.13675C110.681 9.05468 110.681 8.84952 110.599 8.76745C109.723 8.69906 109.6 8.43918 109.6 7.76897V1.57294C109.6 0.683889 109.655 0.136778 109.655 0.136778C109.655 0.0410336 109.6 0 109.477 0C109.135 0.136778 108.109 0.328267 107.562 0.3693C107.535 0.478722 107.562 0.697566 107.644 0.779633C108.356 0.820666 108.52 0.752279 108.52 1.90121V3.65196C108.52 3.74771 108.492 3.77506 108.397 3.77506C108.342 3.77506 107.781 3.54254 107.33 3.54254C106.427 3.54254 105.825 3.84345 105.278 4.36321C104.69 4.95135 104.334 5.75834 104.334 6.7705C104.334 8.45286 105.182 9.68386 106.659 9.68386C107.193 9.68386 107.699 9.41031 108.369 8.8632ZM111.951 1.3541C111.951 1.70972 112.279 2.06534 112.607 2.06534C112.99 2.06534 113.319 1.70972 113.319 1.40881C113.319 1.08054 113.031 0.697566 112.662 0.697566C112.334 0.697566 111.951 1.02583 111.951 1.3541ZM113.196 7.8784V5.15652C113.196 4.47263 113.25 3.59725 113.25 3.59725C113.25 3.54254 113.182 3.50151 113.072 3.50151C112.676 3.65196 112.142 3.77507 111.199 3.89816C111.171 3.98023 111.199 4.19908 111.226 4.28114C111.965 4.36321 112.115 4.4316 112.115 5.21123V7.8784C112.115 9.01365 111.965 9.05468 111.13 9.12307C111.048 9.20514 111.048 9.49237 111.13 9.57444C111.705 9.56076 112.06 9.54708 112.662 9.54708C113.25 9.54708 113.592 9.56076 114.18 9.57444C114.262 9.49237 114.262 9.20514 114.18 9.12307C113.346 9.06836 113.196 9.01365 113.196 7.8784ZM116.129 5.68995C116.389 4.14437 117.347 4.02126 117.675 4.02126C118.195 4.02126 118.81 4.3085 118.81 5.45743C118.81 5.58053 118.755 5.64892 118.605 5.64892L116.129 5.68995ZM119.713 8.27505C119.207 8.79481 118.81 9.01365 118.017 9.01365C117.524 9.01365 116.95 8.72642 116.526 8.02885C116.252 7.57749 116.088 6.94831 116.088 6.155L119.726 6.18235C119.891 6.18235 119.986 6.10028 119.986 5.94983C119.986 4.8009 119.576 3.5699 117.675 3.5699C116.485 3.5699 114.939 4.70516 114.939 6.78417C114.939 7.55013 115.131 8.28873 115.582 8.80848C116.047 9.35559 116.69 9.68386 117.675 9.68386C118.714 9.68386 119.453 9.20514 120 8.4939C119.959 8.35712 119.877 8.28873 119.713 8.27505Z" fill="black"/>
</svg>

<svg xmlns="http://www.w3.org/2000/svg" width="120" height="13" fill="none"><path fill="#000" d="M2.414 8.412v-6.58c0-.478.479-.67 1.15-.67 2.953 0 3.925 2.394 3.925 4.5 0 2.763-1.655 3.447-3.584 3.447-1.34 0-1.49-.26-1.49-.697ZM1.826.725C1.142.725.746.71.062.698c-.083.082-.083.369 0 .45.957.042 1.19.11 1.19 1.246v5.484c0 1.136-.233 1.204-1.19 1.245-.083.082-.083.37 0 .451.67-.013 1.08-.027 1.778-.027.506 0 1.08.027 2.489.027 1.929 0 4.473-.875 4.473-4.24 0-2.544-2.093-4.636-4.72-4.636-.875 0-1.723.027-2.256.027Zm9.342 4.965c.26-1.546 1.218-1.669 1.546-1.669.52 0 1.135.288 1.135 1.436 0 .124-.055.192-.205.192l-2.476.04Zm3.584 2.585c-.506.52-.903.739-1.696.739-.492 0-1.067-.288-1.491-.985-.274-.452-.438-1.08-.438-1.874l3.639.027c.164 0 .26-.082.26-.232 0-1.15-.41-2.38-2.312-2.38-1.19 0-2.736 1.135-2.736 3.214 0 .766.192 1.505.643 2.024.465.548 1.108.876 2.093.876 1.04 0 1.778-.479 2.325-1.19-.04-.137-.123-.205-.287-.219Zm8.703-4.172c.738.055.807.233.52.917L22.88 7.7c-.232.548-.3.534-.506-.04l-.998-2.64c-.233-.657-.424-.835.437-.917.082-.082.082-.369 0-.451-.506.014-.889.027-1.45.027-.478 0-.697-.013-1.203-.027-.082.082-.082.37 0 .451.78.096.82.315 1.094.999l1.75 4.322c.083.205.165.287.343.287.136 0 .218-.082.328-.314l1.82-4.282c.259-.588.41-.943 1.175-1.012.082-.082.082-.369 0-.451-.3.014-.547.027-.902.027-.506 0-.807-.013-1.313-.027-.082.082-.082.37 0 .451Zm3.734 1.108v2.667c0 1.136-.164 1.19-1.012 1.245-.082.082-.082.37 0 .451.575-.013 1.012-.027 1.56-.027.56 0 1.066.014 1.654.027.083-.082.083-.369 0-.45-.957-.07-1.121-.11-1.121-1.246v-1.9c0-.356.164-.671.328-.917.15-.22.465-.67.63-.67.095 0 .204.013.287.095.136.137.273.397.56.397.329 0 .643-.342.643-.684 0-.26-.246-.656-.82-.656-.643 0-1.204.601-1.519 1.135-.082.15-.123.082-.123.013 0-.437.069-1.094.069-1.094 0-.054-.069-.095-.178-.095-.383.15-.93.273-1.874.396-.027.082-.027.301.027.383.739.069.89.178.89.93Zm4.94-3.857c0 .356.328.711.656.711.383 0 .711-.355.711-.656 0-.328-.287-.711-.657-.711-.328 0-.71.328-.71.656Zm1.244 6.524V5.157c0-.684.055-1.56.055-1.56 0-.054-.069-.095-.178-.095-.397.15-.93.273-1.874.396-.027.082 0 .301.027.383.739.082.89.15.89.93v2.667c0 1.136-.151 1.177-.985 1.245-.082.082-.082.37 0 .451.574-.013.93-.027 1.532-.027.588 0 .93.014 1.518.027.082-.082.082-.369 0-.45-.835-.056-.985-.11-.985-1.246Zm2.934-2.188c.26-1.546 1.217-1.669 1.545-1.669.52 0 1.135.288 1.135 1.436 0 .124-.054.192-.205.192l-2.475.04Zm3.583 2.585c-.506.52-.903.739-1.696.739-.492 0-1.067-.288-1.49-.985-.274-.452-.438-1.08-.438-1.874l3.638.027c.164 0 .26-.082.26-.232 0-1.15-.41-2.38-2.312-2.38-1.19 0-2.735 1.135-2.735 3.214 0 .766.191 1.505.643 2.024.465.548 1.107.876 2.092.876 1.04 0 1.778-.479 2.325-1.19-.04-.137-.123-.205-.287-.219Zm2.192-6.92c0 .355.328.71.657.71.383 0 .711-.355.711-.656 0-.328-.287-.711-.657-.711-.328 0-.71.328-.71.656Zm.192 3.856v3.297c0 1.805-.055 3.487-.739 3.487-.15 0-.328-.054-.424-.15-.137-.137-.3-.356-.602-.356-.15 0-.437.274-.437.52 0 .397.492.588.752.588.287 0 .998-.04 1.504-.465.643-.52 1.026-1.504 1.026-4.09V5.158c0-.684.055-1.56.055-1.56 0-.054-.068-.095-.178-.095-.383.15-.93.273-1.874.396-.027.082 0 .301.028.383.738.069.889.15.889.93Zm7.283.479c.26-1.546 1.217-1.669 1.545-1.669.52 0 1.136.288 1.136 1.436 0 .124-.055.192-.205.192l-2.476.04Zm3.584 2.585c-.507.52-.903.739-1.697.739-.492 0-1.066-.288-1.49-.985-.274-.452-.438-1.08-.438-1.874l3.638.027c.164 0 .26-.082.26-.232 0-1.15-.41-2.38-2.312-2.38-1.19 0-2.735 1.135-2.735 3.214 0 .766.191 1.505.643 2.024.465.548 1.108.876 2.093.876 1.039 0 1.778-.479 2.325-1.19-.041-.137-.123-.205-.287-.219Zm3.354-3.625c-.04.055-.137.192-.137 0 0-.41.069-1.04.069-1.04 0-.067-.055-.108-.164-.108-.383.15-.944.273-1.888.396-.027.082 0 .301.028.383.738.069.889.137.889.93v2.667c0 1.122-.137 1.177-.958 1.245-.082.082-.082.37 0 .451.56-.013.916-.027 1.505-.027.533 0 .78.014 1.354.027.082-.082.082-.369 0-.45-.698-.07-.82-.124-.82-1.246V5.635c0-.287.122-.451.232-.574.52-.506 1.053-.807 1.586-.807.274 0 .561.178.725.492.137.274.164.643.164 1.053v2.08c0 1.121-.136 1.176-.848 1.244-.068.082-.068.37 0 .451.575-.013.848-.027 1.395-.027.561 0 .862.014 1.45.027.069-.082.069-.369 0-.45-.766-.07-.916-.124-.916-1.246V5.84c0-.752-.055-1.408-.37-1.832-.232-.301-.656-.465-1.135-.465-.67 0-1.326.177-2.16 1.107Zm10.247 3.652c-.055-.123-.164-.177-.287-.191-.465.602-1.053.903-1.642.903-.998 0-1.832-1.013-1.832-2.613 0-1.504.656-2.407 1.559-2.407.807 0 .916.479.971.957.041.37.233.493.52.493.287 0 .67-.178.67-.602 0-.752-.78-1.3-2.093-1.3-1.354 0-2.804 1.218-2.804 3.16 0 1.765.985 2.982 2.709 2.982.82 0 1.545-.26 2.229-1.382Zm3.198 3.434c.205-.37.383-.766.561-1.177 1.094-2.626 1.696-4.048 2.421-5.58.192-.397.602-.835 1.108-.876.082-.082.082-.369 0-.451-.342.014-.588.027-.971.027-.479 0-.739-.013-1.245-.027-.082.082-.082.37 0 .451.424.041.862.123.657.616L71.103 7.85c-.096.233-.205.26-.328-.014L69.57 4.992c-.246-.574-.397-.82.438-.889.082-.082.082-.369 0-.451-.507.014-1.054.027-1.546.027-.465 0-.834-.013-1.108-.027-.082.082-.082.37 0 .451.602.055.711.164 1.08 1.026l1.546 3.597c.123.288.329.903.192 1.286-.15.465-.329.835-.534 1.258-.15.274-.342.397-.684.397-.191 0-.246-.04-.396-.04-.397 0-.602.41-.602.587 0 .287.274.506.643.506.287 0 .834-.11 1.327-.985h.013Zm9.598-3.434c-.055-.123-.164-.177-.287-.191-.465.602-1.053.903-1.641.903-.999 0-1.833-1.013-1.833-2.613 0-1.504.656-2.407 1.559-2.407.807 0 .916.479.971.957.041.37.233.493.52.493.287 0 .67-.178.67-.602 0-.752-.78-1.3-2.093-1.3-1.354 0-2.803 1.218-2.803 3.16 0 1.765.984 2.982 2.708 2.982.82 0 1.545-.26 2.23-1.382Zm1.653-.424c0 1.136-.15 1.204-.985 1.245-.082.082-.082.37 0 .451.575-.013.93-.027 1.532-.027.588 0 .93.014 1.518.027.082-.082.082-.369 0-.45-.834-.042-.985-.11-.985-1.246V1.573c0-.89.055-1.436.055-1.436 0-.096-.055-.137-.178-.137-.342.137-1.367.328-1.915.37-.027.109 0 .328.082.41.712.04.876-.028.876 1.121v5.977Zm2.868-1.135c0 1.395.943 2.94 2.872 2.94 2.038 0 2.9-1.695 2.9-3.063 0-1.422-.753-3.077-2.873-3.077-1.846 0-2.9 1.463-2.9 3.2Zm2.749-2.75c1.176 0 1.846 1.054 1.846 3.065 0 1.805-.834 2.175-1.477 2.175-1.422 0-1.942-1.751-1.942-2.804 0-1.19.424-2.435 1.573-2.435Zm5.976.972c.424-.438.97-.793 1.381-.793.876 0 1.628.985 1.628 2.53 0 1.122-.397 2.517-1.929 2.517-.246 0-.725-.069-.97-.287-.288-.247-.329-.315-.329-.821V5.567c0-.287.041-.41.219-.602Zm-.11-.451c-.054.054-.136.068-.136-.041 0-.493.054-.876.054-.876 0-.054-.068-.095-.177-.095-.384.15-.903.273-1.847.396-.027.082 0 .301.027.383.739.069.89.15.89.93v5.84c0 1.136-.151 1.204-.985 1.245-.082.082-.082.37 0 .452.574-.014.93-.028 1.531-.028.643 0 1.067.014 1.655.028.083-.082.083-.37 0-.452-.97-.054-1.121-.11-1.121-1.244V9.574c0-.177.041-.15.191-.095.329.136.753.205 1.19.205.766 0 1.45-.233 2.011-.766.643-.63 1.012-1.477 1.012-2.585 0-1.45-1.026-2.79-2.42-2.79-.507 0-1.26.341-1.875.97ZM99.3 5.69c.26-1.546 1.217-1.669 1.546-1.669.519 0 1.135.288 1.135 1.436 0 .124-.055.192-.205.192l-2.476.04Zm3.584 2.585c-.506.52-.903.739-1.696.739-.493 0-1.067-.288-1.491-.985-.274-.452-.438-1.08-.438-1.874l3.638.027c.165 0 .26-.082.26-.232 0-1.15-.41-2.38-2.311-2.38-1.19 0-2.736 1.135-2.736 3.214 0 .766.192 1.505.643 2.024.465.548 1.108.876 2.093.876 1.039 0 1.778-.479 2.325-1.19-.041-.137-.123-.205-.287-.219Zm5.637-.424c0 .26-.028.37-.219.533-.506.438-.944.657-1.286.657-.739 0-1.504-.807-1.504-2.517 0-.984.191-1.532.396-1.819a1.435 1.435 0 0 1 1.272-.684c.493 0 .835.178 1.108.493.192.219.233.314.233.738v2.599Zm-.151 1.012c.055-.055.164-.082.164.014 0 .328.151.807.151.807.109.04.15.027.26 0 .301-.246.82-.452 1.655-.547.082-.082.082-.287 0-.37-.876-.068-.999-.328-.999-.998V1.573c0-.89.055-1.436.055-1.436 0-.096-.055-.137-.178-.137-.342.137-1.368.328-1.915.37-.027.109 0 .328.082.41.712.04.876-.028.876 1.121v1.751c0 .096-.028.123-.123.123-.055 0-.616-.232-1.067-.232-.903 0-1.505.3-2.052.82-.588.588-.944 1.395-.944 2.407 0 1.683.848 2.914 2.325 2.914.534 0 1.04-.274 1.71-.82Zm3.582-7.509c0 .356.328.711.656.711.383 0 .712-.355.712-.656 0-.328-.288-.711-.657-.711-.328 0-.711.328-.711.656Zm1.245 6.524V5.157c0-.684.054-1.56.054-1.56 0-.054-.068-.095-.178-.095-.396.15-.93.273-1.873.396-.028.082 0 .301.027.383.739.082.889.15.889.93v2.667c0 1.136-.15 1.177-.985 1.245-.082.082-.082.37 0 .451.575-.013.93-.027 1.532-.027.588 0 .93.014 1.518.027.082-.082.082-.369 0-.45-.834-.056-.984-.11-.984-1.246Zm2.933-2.188c.26-1.546 1.218-1.669 1.546-1.669.52 0 1.135.288 1.135 1.436 0 .124-.055.192-.205.192l-2.476.04Zm3.584 2.585c-.506.52-.903.739-1.696.739-.493 0-1.067-.288-1.491-.985-.274-.452-.438-1.08-.438-1.874l3.638.027c.165 0 .26-.082.26-.232 0-1.15-.41-2.38-2.311-2.38-1.19 0-2.736 1.135-2.736 3.214 0 .766.192 1.505.643 2.024.465.548 1.108.876 2.093.876 1.039 0 1.778-.479 2.325-1.19-.041-.137-.123-.205-.287-.219Z"/></svg>
